src/assets/icons/edit.svg

<?xml version="1.0" encoding="UTF-8"?>
<svg width="32px" height="32px" viewBox="0 0 32 32" version="1.1" xmlns="http://www.w3.org/2000/svg" xmlns:xlink="http://www.w3.org/1999/xlink">
    <!-- Generator: Sketch 61.2 (89653) - https://sketch.com -->
    <title>Atoms/Ikoner/Ui/Edit</title>
    <desc>Created with Sketch.</desc>
    <g id="Atoms/Ikoner/Ui/Edit" stroke="none" stroke-width="1" fill="none" fill-rule="evenodd">
        <g id="Edit">
            <path d="M13.5007,2.0242 L13.5007,4.0242 L2.015,4.024 L2.015,28 L29.994,28 L29.9897001,17.9096508 L31.9896999,17.9087492 L31.9951509,30.0002 L0.0157,30.0002 L0.0157,2.0242 L13.5007,2.0242 Z M25.6388147,0.610733995 L31.28273,6.25598357 L28.5857,8.95173399 L28.5870185,8.95337235 L28.0037,9.53473399 L27.1726,10.3661136 L27.1707,10.364734 L15.9307,21.569734 L14.8017587,22.6998548 L7.21613064,24.6580395 L9.17560787,17.0725786 L11.2415161,15.0066704 L21.5272553,4.72076887 L25.6388147,0.610733995 Z M11.241,17.834 L10.975,18.1 L10,21.873 L13.773,20.899 L14.04,20.632 L11.241,17.834 Z M22.941,6.135 L12.655,16.42 L15.4557,19.218734 L25.756,8.951 L22.941,6.135 Z M25.638,3.438 L24.356,4.721 L27.172,7.537 L28.454,6.255 L25.638,3.438 Z" id="Combined-Shape" fill="#2A2859" fill-rule="nonzero"></path>
        </g>
    </g>
</svg>

<svg xmlns="http://www.w3.org/2000/svg" width="32" height="32" viewBox="0 0 32 32"><g id="edit"><path id="Combined-Shape" d="M13.5,2V4H2V28H30V17.91h2V30H0V2ZM25.64.61l5.64,5.65L28.59,9h0L28,9.53l-.83.84h0L15.93,21.57,14.8,22.7l-7.58,2,2-7.59L11.24,15,21.53,4.72ZM11.24,17.83,11,18.1l-1,3.77,3.77-1,.27-.27Zm11.7-11.7L12.65,16.42l2.81,2.8L25.76,9Zm2.7-2.69L24.36,4.72l2.81,2.82,1.28-1.29Z"/></g></svg>
